X:1
T:Title
%%score { ( 1 4 ) | ( 2 3 ) }
L:1/8
M:4/4
K:F
V:1 treble nm="Grand Piano"
V:4 treble 
V:2 bass 
V:3 bass 
V:1
 z4 z2[Q:1/4=100] F>G | A>A A>A A>G F>A | c2 [Fd]4 z [Fd] | c2 A>G F2 [FA]>[FG] |[M:3/4] [EG]6 | %5
[M:1/4] F>G |[M:4/4] A>A A>A A>G F>A | c2 [Fd]4 z [Fd] | [Fc]>[CFA] [CF]>[DFG] [CF]2 [B,EG]2 | %9
[M:3/4] F6 |[M:1/4] c>A |[M:4/4] G>d d>d d2 d2 | d<c cA c3 c | c A3 FF [=B,FA]2 | [CEG]6 F->[FG] | %15
 A>A A>G F2 c>c | [Fd]>[Fd] [Ff]>[Fd] c2 FG | [CFA]>[CFA] [CAc]>[CFA] [B,EG]>[A,F] [B,EG]>[CEA] | %18
[M:3/4] [A,F]6 |] %19
V:2
 z4 z2 [F,A,]>[F,B,F] | [F,CF]>[F,CF] [F,CF]>[F,CF] [F,CF]>[F,B,E] [F,A,]>[F,A,F] | %2
 [F,A,F]2 [B,,B,]4 z [B,,B,] | [F,A,F]2 [F,CF]>[F,B,E] [F,A,]2 [D,=B,]>[D,B,] |[M:3/4] [C,C]6 | %5
[M:1/4] [F,A,]>[F,B,F] |[M:4/4] [F,CF]>[F,CF] [F,CF]>[F,CF] [F,CF]>[F,B,E] [F,A,]>[F,A,F] | %7
 [F,A,F]2 [B,,B,]4 z [B,,B,] | [F,A,]>F, A,,>B,, C,2 C,2 |[M:3/4] [F,A,]6 | %10
[M:1/4][K:treble] [F,A,F]>[F,CF] |[M:4/4] [B,DF]>[B,F] [B,F]>[B,F] [B,CF]2 [B,F]2 | %12
 [F,B,F]<[F,A,F] [F,F]-[F,CF] [F,A,F]3 [F,A,F] | [F,A,F] [F,CF]3 [D,=B,][D,B,] G,,2 | %14
 C,6 z z/ B,/ | [F,CF]>[F,CF] [F,CF]>[F,B,E] [F,A,]2 [F,A,F]>[F,A,F] | z4 z2 .A,2 | %17
 F,>F, F,>F, C,>C, C,>C, |[M:3/4] F,6 |] %19
V:3
 x8 | x8 | x8 | x8 |[M:3/4] x6 |[M:1/4] x2 |[M:4/4] x8 | x8 | x8 |[M:3/4] x6 | %10
[M:1/4][K:treble] x2 |[M:4/4] x8 | z2 .A,2 z4 | x8 | z4 z2 F,2 | x8 | %16
 [B,,B,]>[B,,B,] [B,,D]>[D,B,] [F,A,F]2 [F,C]-[F,B,C] | x8 |[M:3/4] x6 |] %19
V:4
 x8 | x8 | x8 | x8 |[M:3/4] x6 |[M:1/4] x2 |[M:4/4] x8 | x8 | x8 |[M:3/4] x6 |[M:1/4] x2 | %11
[M:4/4] x8 | x8 | x8 | z4 z2 A,2 | x8 | x8 | x8 |[M:3/4] x6 |] %19

